!!!OTL: GLUECKLICH WER IM HOLDEN BUNDE
!!!ARE: Europa, Mitteleuropa, Deutschland
!!!SCT: F0750
!!!YEM: Copyright 1995, estate of Helmut Schaffrath.
**kern
*ICvox
*Ivox
*M3/8
*k[]
*C:
=1
{4e
8d
=2
4c
8B
=3
8A
8B
8c
=4
4A
8G}
=5
{4f
8d
=6
4e
8c
=7
4B
8c
=8
4d
8r}
=9
{8e
8f
8e
=10
8e
8d
8d
=11
8c
8d
8c
=12
8c
8B-
8B-}
=13
{8A
8B
8c#
=14
8d
8e
8f
=15
8e
8f
8d
=16
4c
8r}
=17
{4c
8c
=18
4G
8G
=19
4e
8e
=20
4c
8c}
=21
{4f
8d
=22
4e
8c
=23
4B
8c
=24
4d
8r}
=25
{4e
8e
=26
4d
8d
=27
4f
8f
=28
4e
8e}
=29
{4a
8a
=30
4g
8e
=31
8f
8e
8d
=32
4c
8r}
==
!!!AGN: Geselligkeits -, Trink - Lied, Rundgesang
!!!ONB: ESAC (Essen Associative Code) Database: FINK
!!!AMT: simple triple
!!!AIN: vox
!!!EED: Helmut Schaffrath
!!!EEV: 1.0
*-
